X: 7738
T:Saddle The Pony
R:Jig
O:Scotland
O:Ireland
M:6/8
K:G
GBA G2B| def gdB| GBA G2B| AFD AFD|\
GBA G2B| def gfg| ege dBA| BGG G3::\
efe edB| def gfg| efe edB| dBA ABd|\
efe edB| def geg| ege dBA| BGG G3:|
